Origami/64x64/apps/ms-word.svg

<svg width="64" height="64" version="1" xmlns="http://www.w3.org/2000/svg">
 <path d="m14.033677 10.003997c-5.8870799-0.0335717-10.365397 5.946349-8.6719626 11.578242l7.9766436 27.89872v4e-3c1.052261 3.672553 4.468716 6.164162 7.820392 6.476627 3.351672 0.312464 7.168412-1.507307 8.882902-4.921926l4e-3 -0.0078 1.949238-3.894571 1.949237 3.894571c1.711422 3.421367 5.535614 5.24621 8.890717 4.933644 3.355958-0.312645 6.77286-2.812232 7.820391-6.492253l7.988271-27.922262c0.709835-2.4077 0.343253-5.277588-0.94923-7.324293-1.292481-2.046705-3.203856-3.28549-5.214897-3.859414-2.011042-0.5739237-4.284999-0.5283827-6.464909 0.527349-2.179908 1.055732-4.008969 3.29605-4.679734 5.714902l-1.644548 5.734432a9.0000914 9.0000914 0 0 0 -7.691484 -4.343794 9.0000914 9.0000914 0 0 0 -7.695391 4.351606l-1.65236-5.78912 0.0196 0.07813c-1.051837-3.87291-4.619385-6.614359-8.636876-6.636787z" style="opacity:.2"/>
 <path d="m14.033677 9.0033158c-5.8870799-0.0335721-10.365397 5.9463492-8.6719626 11.578243l7.9766436 27.898719v4e-3c1.052261 3.672554 4.468716 6.164163 7.820392 6.476628 3.351672 0.312463 7.168412-1.507307 8.882902-4.921926l4e-3 -0.0078 1.949238-3.894571 1.949237 3.894571c1.711422 3.421367 5.535614 5.246209 8.890717 4.933644 3.355958-0.312645 6.77286-2.812232 7.820391-6.492254l7.988271-27.922261c0.709835-2.407702 0.343253-5.277589-0.94923-7.324294-1.292481-2.046705-3.203856-3.2854898-5.214897-3.8594141-2.011042-0.5739244-4.284999-0.5283831-6.464909 0.527349-2.179908 1.0557321-4.008969 3.2960501-4.679734 5.7149021l-1.644548 5.734433a9.0000914 9.0000914 0 0 0 -7.691484 -4.343794 9.0000914 9.0000914 0 0 0 -7.695391 4.351606l-1.65236-5.789121 0.0196 0.07813c-1.051837-3.872913-4.619385-6.6143623-8.636876-6.6367902z" style="fill:#37a0f2"/>
 <path d="m14.010521 18.999521 8.000081 28.000284 10.000102-20.000203 10.000101 20.000203 8.000081-28.000284" style="fill:none;opacity:.2;stroke-linecap:round;stroke-linejoin:round;stroke-width:6.000061;stroke:#000000"/>
 <path d="m14.018052 14.960408a3.0003305 3.0003305 0 0 0 -2.890654 3.86332l8.000081 28.000284a3.0003305 3.0003305 0 0 0 5.566462 0.519537l7.316481-14.632961 7.31648 14.632961a3.0003305 3.0003305 0 0 0 5.57037 -0.519537l8.000082-28.000284a3.0003305 3.0003305 0 1 0 -5.769591 -1.648454l-5.882872 20.586146-6.550848-13.101695a3.0003305 3.0003305 0 0 0 -5.367243 0l-6.550846 13.097788-5.878966-20.582239a3.0003305 3.0003305 0 0 0 -2.878936 -2.214866z" style="fill:#ffffff"/>
 <path d="m50.125 9.0019531c-1.348769-0.0339871-2.748884 0.2327456-4.111328 0.8925781-2.179908 1.0557318-4.008923 3.2959918-4.679688 5.7148438l-1.644531 5.734375a9.0000914 9.0000914 0 0 0 -7.691406 -4.34375 9.0000914 9.0000914 0 0 0 -7.695313 4.351562l-1.652343-5.789062 0.019531 0.078125c-1.051837-3.872913-4.619228-6.6142909-8.636719-6.6367188-5.2129432-0.0297277-9.3129755 4.6549788-9.0097655 9.6386718 0.2579213-4.591492 4.1482499-8.6663951 9.0097655-8.638672 4.017491 0.022428 7.584882 2.763806 8.636719 6.636719l-0.019531-0.078125 1.652343 5.789062a9.0000914 9.0000914 0 0 1 7.695313 -4.351562 9.0000914 9.0000914 0 0 1 7.691406 4.34375l1.644531-5.734375c0.670765-2.418852 2.49978-4.659112 4.679688-5.714844 2.17991-1.0557314 4.453802-1.1012675 6.464844-0.527343 2.011041 0.573925 3.922362 1.81267 5.214843 3.859374 0.773658 1.225122 1.209236 2.745818 1.28711 4.285157 0.099306-1.867689-0.345604-3.794241-1.28711-5.285157-1.292481-2.046705-3.203802-3.2854502-5.214843-3.8593745-0.754141-0.2152217-1.544255-0.3448421-2.353516-0.3652344z" style="fill:#ffffff;opacity:.2"/>
</svg>

<svg xmlns="http://www.w3.org/2000/svg" width="64" height="64" version="1">
 <path style="opacity:0.2" d="M 14.033677,10.003997 C 8.1465971,9.9704253 3.6682804,15.950346 5.3617144,21.582239 l 7.9766436,27.89872 v 0.004 c 1.052261,3.672553 4.468716,6.164162 7.820392,6.476627 3.351672,0.312464 7.168412,-1.507307 8.882902,-4.921926 l 0.004,-0.0078 1.949238,-3.894571 1.949237,3.894571 c 1.711422,3.421367 5.535614,5.24621 8.890717,4.933644 3.355958,-0.312645 6.77286,-2.812232 7.820391,-6.492253 l 7.988271,-27.922262 c 0.709835,-2.4077 0.343253,-5.277588 -0.94923,-7.324293 -1.292481,-2.046705 -3.203856,-3.28549 -5.214897,-3.859414 -2.011042,-0.5739237 -4.284999,-0.5283827 -6.464909,0.527349 -2.179908,1.055732 -4.008969,3.29605 -4.679734,5.714902 l -1.644548,5.734432 a 9.0000914,9.0000914 0 0 0 -7.691484,-4.343794 9.0000914,9.0000914 0 0 0 -7.695391,4.351606 l -1.65236,-5.78912 0.0196,0.07813 C 21.618716,12.767877 18.051168,10.026428 14.033677,10.004 Z"/>
 <path style="fill:#37a0f2" d="M 14.033677,9.0033158 C 8.1465971,8.9697437 3.6682804,14.949665 5.3617144,20.581559 l 7.9766436,27.898719 v 0.004 c 1.052261,3.672554 4.468716,6.164163 7.820392,6.476628 3.351672,0.312463 7.168412,-1.507307 8.882902,-4.921926 l 0.004,-0.0078 1.949238,-3.894571 1.949237,3.894571 c 1.711422,3.421367 5.535614,5.246209 8.890717,4.933644 3.355958,-0.312645 6.77286,-2.812232 7.820391,-6.492254 L 58.643506,20.550309 C 59.353341,18.142607 58.986759,15.27272 57.694276,13.226015 56.401795,11.17931 54.49042,9.9405252 52.479379,9.3666009 50.468337,8.7926765 48.19438,8.8382178 46.01447,9.8939499 43.834562,10.949682 42.005501,13.19 41.334736,15.608852 l -1.644548,5.734433 a 9.0000914,9.0000914 0 0 0 -7.691484,-4.343794 9.0000914,9.0000914 0 0 0 -7.695391,4.351606 l -1.65236,-5.789121 0.0196,0.07813 C 21.618716,11.767193 18.051168,9.0257437 14.033677,9.0033158 Z"/>
 <path style="opacity:0.2;fill:none;stroke:#000000;stroke-width:6.00006104;stroke-linecap:round;stroke-linejoin:round" d="M 14.010521,18.999521 22.010602,46.999805 32.010704,26.999602 42.010805,46.999805 50.010886,18.999521"/>
 <path style="fill:#ffffff" d="m 14.018052,14.960408 a 3.0003305,3.0003305 0 0 0 -2.890654,3.86332 l 8.000081,28.000284 a 3.0003305,3.0003305 0 0 0 5.566462,0.519537 l 7.316481,-14.632961 7.31648,14.632961 a 3.0003305,3.0003305 0 0 0 5.57037,-0.519537 L 52.897354,18.823728 A 3.0003305,3.0003305 0 1 0 47.127763,17.175274 L 41.244891,37.76142 34.694043,24.659725 a 3.0003305,3.0003305 0 0 0 -5.367243,0 L 22.775954,37.757513 16.896988,17.175274 a 3.0003305,3.0003305 0 0 0 -2.878936,-2.214866 z"/>
 <path style="opacity:0.2;fill:#ffffff" d="M 50.125 9.0019531 C 48.776231 8.967966 47.376116 9.2346987 46.013672 9.8945312 C 43.833764 10.950263 42.004749 13.190523 41.333984 15.609375 L 39.689453 21.34375 A 9.0000914 9.0000914 0 0 0 31.998047 17 A 9.0000914 9.0000914 0 0 0 24.302734 21.351562 L 22.650391 15.5625 L 22.669922 15.640625 C 21.618085 11.767712 18.050694 9.0263341 14.033203 9.0039062 C 8.8202598 8.9741785 4.7202275 13.658885 5.0234375 18.642578 C 5.2813588 14.051086 9.1716874 9.9761829 14.033203 10.003906 C 18.050694 10.026334 21.618085 12.767712 22.669922 16.640625 L 22.650391 16.5625 L 24.302734 22.351562 A 9.0000914 9.0000914 0 0 1 31.998047 18 A 9.0000914 9.0000914 0 0 1 39.689453 22.34375 L 41.333984 16.609375 C 42.004749 14.190523 43.833764 11.950263 46.013672 10.894531 C 48.193582 9.8387996 50.467474 9.7932635 52.478516 10.367188 C 54.489557 10.941113 56.400878 12.179858 57.693359 14.226562 C 58.467017 15.451684 58.902595 16.97238 58.980469 18.511719 C 59.079775 16.64403 58.634865 14.717478 57.693359 13.226562 C 56.400878 11.179857 54.489557 9.9411118 52.478516 9.3671875 C 51.724375 9.1519658 50.934261 9.0223454 50.125 9.0019531 z"/>
</svg>
